flaticon/technology/iphone.svg

<svg xmlns="http://www.w3.org/2000/svg" width="32" height="32" viewBox="0 0 24 24">
    <path d="M7 6C7.101562 6 7.203125 5.960938 7.28125 5.882812L8.882812 4.28125C9.039062 4.125 9.039062 3.875 8.882812 3.71875 8.726562 3.5625 8.472656 3.5625 8.316406 3.71875L6.71875 5.316406C6.5625 5.472656 6.5625 5.726562 6.71875 5.882812 6.796875 5.960938 6.898438 6 7 6zM7 8C7.101562 8 7.203125 7.960938 7.28125 7.882812L8.082031 7.082031C8.238281 6.925781 8.238281 6.671875 8.082031 6.515625 7.925781 6.359375 7.671875 6.359375 7.515625 6.515625L6.71875 7.316406C6.5625 7.472656 6.5625 7.726562 6.71875 7.882812 6.796875 7.960938 6.898438 8 7 8zM8.316406 5.714844C8.246094 5.792969 8.199219 5.894531 8.199219 6 8.199219 6.105469 8.246094 6.207031 8.316406 6.285156 8.390625 6.355469 8.496094 6.398438 8.601562 6.398438 8.703125 6.398438 8.808594 6.355469 8.882812 6.285156 8.957031 6.207031 9 6.105469 9 6 9 5.890625 8.957031 5.792969 8.882812 5.714844 8.734375 5.566406 8.46875 5.566406 8.316406 5.714844zM9.117188 5.484375C9.195312 5.5625 9.296875 5.601562 9.398438 5.601562 9.503906 5.601562 9.605469 5.5625 9.683594 5.484375L10.882812 4.28125C11.039062 4.125 11.039062 3.875 10.882812 3.71875 10.726562 3.5625 10.472656 3.5625 10.316406 3.71875L9.117188 4.917969C8.960938 5.074219 8.960938 5.328125 9.117188 5.484375zM10.316406 5.71875L6.71875 9.316406C6.5625 9.472656 6.5625 9.726562 6.71875 9.882812 6.796875 9.960938 6.898438 10 7 10 7.101562 10 7.203125 9.960938 7.28125 9.882812L10.882812 6.28125C11.039062 6.125 11.039062 5.875 10.882812 5.71875 10.726562 5.5625 10.472656 5.5625 10.316406 5.71875zM11.117188 4.914062C11.042969 4.992188 11 5.089844 11 5.199219 11 5.304688 11.042969 5.40625 11.117188 5.484375 11.191406 5.554688 11.296875 5.601562 11.398438 5.601562 11.503906 5.601562 11.609375 5.554688 11.683594 5.484375 11.757812 5.40625 11.800781 5.304688 11.800781 5.199219 11.800781 5.089844 11.757812 4.992188 11.683594 4.921875 11.535156 4.769531 11.265625 4.769531 11.117188 4.914062zM12.316406 3.71875L11.917969 4.117188C11.761719 4.273438 11.761719 4.527344 11.917969 4.683594 11.996094 4.761719 12.097656 4.800781 12.199219 4.800781 12.300781 4.800781 12.40625 4.761719 12.484375 4.683594L12.882812 4.28125C13.039062 4.125 13.039062 3.875 12.882812 3.71875 12.726562 3.5625 12.472656 3.5625 12.316406 3.71875zM12.316406 3.71875"/>
    <path d="M 17.414062 0 L 6.984375 0 C 6.109375 0 5.398438 0.710938 5.398438 1.585938 L 5.398438 3.601562 C 5.179688 3.601562 5 3.777344 5 4 L 5 4.398438 C 5 4.621094 5.179688 4.800781 5.398438 4.800781 L 5.398438 5.199219 C 5.179688 5.199219 5 5.378906 5 5.601562 L 5 6 C 5 6.222656 5.179688 6.398438 5.398438 6.398438 L 5.398438 6.800781 C 5.179688 6.800781 5 6.980469 5 7.199219 L 5 7.601562 C 5 7.820312 5.179688 8 5.398438 8 L 5.398438 22.414062 C 5.398438 23.289062 6.109375 24 6.984375 24 L 17.414062 24 C 18.289062 24 19 23.289062 19 22.414062 L 19 1.585938 C 19 0.710938 18.289062 0 17.414062 0 Z M 12.199219 22.800781 C 11.757812 22.800781 11.398438 22.441406 11.398438 22 C 11.398438 21.558594 11.757812 21.199219 12.199219 21.199219 C 12.640625 21.199219 13 21.558594 13 22 C 13 22.441406 12.640625 22.800781 12.199219 22.800781 Z M 6.199219 3.199219 L 18.199219 3.199219 L 18.199219 20 L 6.199219 20 Z M 6.199219 22.414062 L 6.199219 20.800781 L 11.152344 20.800781 C 10.816406 21.09375 10.601562 21.519531 10.601562 22 C 10.601562 22.480469 10.816406 22.90625 11.152344 23.199219 L 6.984375 23.199219 C 6.550781 23.199219 6.199219 22.847656 6.199219 22.414062 Z M 18.199219 22.414062 C 18.199219 22.847656 17.847656 23.199219 17.414062 23.199219 L 13.246094 23.199219 C 13.582031 22.90625 13.800781 22.480469 13.800781 22 C 13.800781 21.519531 13.582031 21.09375 13.246094 20.800781 L 18.199219 20.800781 Z M 6.199219 2.398438 L 6.199219 1.585938 C 6.199219 1.152344 6.550781 0.800781 6.984375 0.800781 L 17.414062 0.800781 C 17.847656 0.800781 18.199219 1.152344 18.199219 1.585938 L 18.199219 2.398438 Z M 6.199219 2.398438"/>
    <path d="M13.800781 1.199219L11.800781 1.199219C11.578125 1.199219 11.398438 1.378906 11.398438 1.601562 11.398438 1.820312 11.578125 2 11.800781 2L13.800781 2C14.019531 2 14.199219 1.820312 14.199219 1.601562 14.199219 1.378906 14.019531 1.199219 13.800781 1.199219zM10.601562 1.199219L10.199219 1.199219C9.980469 1.199219 9.800781 1.378906 9.800781 1.601562 9.800781 1.820312 9.980469 2 10.199219 2L10.601562 2C10.820312 2 11 1.820312 11 1.601562 11 1.378906 10.820312 1.199219 10.601562 1.199219zM10.601562 1.199219"/>
</svg>

<svg xmlns="http://www.w3.org/2000/svg" width="32" height="32" viewBox="0 0 24 24">
    <path d="M7 6c.102 0 .203-.04.281-.117L8.883 4.28a.396.396 0 0 0 0-.562.4.4 0 0 0-.567 0L6.72 5.316A.4.4 0 0 0 7 6zm0 0M7 8c.102 0 .203-.04.281-.117l.801-.801a.4.4 0 0 0-.566-.566l-.797.8A.4.4 0 0 0 7 8zm0 0M8.316 5.715A.434.434 0 0 0 8.2 6c0 .105.047.207.117.285.075.07.18.113.286.113a.42.42 0 0 0 .28-.113A.416.416 0 0 0 9 6a.409.409 0 0 0-.117-.285.416.416 0 0 0-.567 0zm0 0M9.117 5.484a.399.399 0 0 0 .566 0l1.2-1.203a.396.396 0 0 0 0-.562.4.4 0 0 0-.567 0L9.117 4.918a.4.4 0 0 0 0 .566zm0 0M10.316 5.719L6.72 9.316A.4.4 0 0 0 7 10c.102 0 .203-.04.281-.117l3.602-3.602a.396.396 0 0 0 0-.562.4.4 0 0 0-.567 0zm0 0M11.117 4.914A.409.409 0 0 0 11 5.2c0 .106.043.207.117.285.074.07.18.118.281.118.106 0 .211-.047.286-.118A.416.416 0 0 0 11.8 5.2a.377.377 0 0 0-.117-.277.416.416 0 0 0-.567-.008zm0 0M12.316 3.719l-.398.398a.4.4 0 0 0 .566.567l.399-.403a.396.396 0 0 0 0-.562.4.4 0 0 0-.567 0zm0 0"/>
    <path d="M17.414 0H6.984C6.11 0 5.398.71 5.398 1.586v2.016A.398.398 0 0 0 5 4v.398c0 .223.18.403.398.403v.398A.401.401 0 0 0 5 5.602V6c0 .223.18.398.398.398v.403A.4.4 0 0 0 5 7.199v.403A.4.4 0 0 0 5.398 8v14.414c0 .875.711 1.586 1.586 1.586h10.43C18.29 24 19 23.29 19 22.414V1.586C19 .71 18.29 0 17.414 0zM12.2 22.8a.802.802 0 0 1 0-1.6.802.802 0 0 1 0 1.6zm-6-19.6h12V20h-12zm0 19.214v-1.613h4.953c-.336.293-.55.719-.55 1.199 0 .48.214.906.55 1.2H6.984a.785.785 0 0 1-.785-.786zm12 0a.785.785 0 0 1-.785.785h-4.168c.336-.293.555-.719.555-1.199 0-.48-.219-.906-.555-1.2H18.2zM6.2 2.398v-.812c0-.434.352-.785.785-.785h10.43c.434 0 .785.351.785.785v.812zm0 0"/>
    <path d="M13.8 1.2h-2a.401.401 0 0 0 0 .8h2a.4.4 0 0 0 0-.8zm0 0M10.602 1.2h-.403a.401.401 0 0 0 0 .8h.403a.4.4 0 0 0 0-.8zm0 0"/>
</svg>
